public/avatar/shoe/35.svg

<svg xmlns:xlink="http://www.w3.org/1999/xlink" height="38.3" width="36.05" xmlns="http://www.w3.org/2000/svg"><use height="16.3" transform="translate(9.05 12.45)" width="24.3" xlink:href="#a"/><defs><g id="a"><path d="m5.75 10.15.9-1.65q.5-.3 1.3-3l1 .8q.3.4.2 1.25-.2 1-.85 1.45l-2.55 1.15" fill="#c99f55" fill-rule="evenodd" transform="translate(14.75 2.4)"/><path d="M2.2-1.45q1.45.15 3.2 2.1L5.5.6l1.4 1.5q1.15 1.95 1.8 4.1.5 1.65-.9 2.6l-1.6.9q-1.3 1-3.35 1.85Q-2.7 13.7-7 13.45l-2.25-.2-.85-.05-1-.35q-1-.3-1.5-.75l-.65-.65-.3-.3q-.9-.95-.3-2.15 1.2-2.3 3.5-3.65h.05q2.9-3.2 5.75-4.9l.35-.3 2.1-1.25 2.15-.7q1.25-.3 2.15.35" fill="#ff4f98" fill-rule="evenodd" transform="translate(14.75 2.4)"/><path d="m-1.3 10.35-2.25.9-3.75.25q-.8-.15.9-3.3L-2.2 6l-2.45-.2q-1.65.15-3.15 1.8-.4.4-.8 1.9-.3 1.25-.65 1.25l-2.4-.45-1.05-.75.3-1.75 4.8-5.1Q-3.05-2 .9-1.8q5.05.4 6.9 6 .75 1.85.55 2.2-1 2-4.45 2.7l-5.2 1.25" fill="#e8cbb1" fill-rule="evenodd" transform="translate(14.75 2.4)"/><path d="M-1.85 5.05q3.3 1.5 3.3 5.05l-2.05.65Q-.7 8.7-1.45 7.8q-.7-1-2.85-1.65-3.85-1.1-5.55-.65l-1.5.8Q-9.5 3.8-8.3 3.6q2.5-.35 6.45 1.45" fill="#ff4f98" fill-rule="evenodd" transform="translate(14.75 2.4)"/><path d="M8.2 5.25q.2 1.75-3.25 3Q1.5 9.55.6 9.4m-9.5 1.05-2.45-.7-1.05-.7-.3-1.45" fill="none" stroke="#dba778" stroke-linecap="round" stroke-linejoin="round" transform="translate(14.75 2.4)"/><path d="m-13.55 8.3-.5.7q-.4.8 0 1.75 1.35 2.95 9.6 2.6 4-.25 11.2-3.6 2.7-1.15 2.2-3.45" fill="none" stroke="#a31471" stroke-linecap="round" stroke-linejoin="round" transform="translate(14.75 2.4)"/><path d="M8.95 6.5q0-1.2-.7-2.4L5.75.6Q4.1-1 1.7-1.65q-2.55-.8-5.3 1.1L-8.3 3.6q-1.4 1.5-4.5 4.05l-.75.7" fill="none" stroke="#000" stroke-linecap="round" stroke-linejoin="round" transform="translate(14.75 2.4)"/><path d="M-.7 9.75q-1.4 1.75-4.1 1.75-2.7 0-2.6-.6" fill="none" stroke="#dba778" stroke-linecap="round" stroke-linejoin="round" transform="translate(14.75 2.4)"/><path d="M-1 1.75q2.8.7.4 2.7Q1.5 4 1.35 5.7 1.2 7.3-2 6.9q1 1.95-1.75 1.85-2-.15-1.95-.9-.75.75-2.3-.65-2.1-2 1.4-2.65-2.05-1.5.3-2.4 2.3-.9 2.75 1.15-.2-2.2 2.55-1.55" fill="#de4e00" fill-rule="evenodd" transform="translate(14.75 2.4)"/><path d="M-3.05 6.1q-1.2.85-2.3-.3-1.05-1.15.75-1.9L-2 4q.75.85-1.05 2.1" fill="#fff200" fill-rule="evenodd" transform="translate(14.75 2.4)"/></g></defs></svg>

<?xml version="1.0" encoding="UTF-8" standalone="no"?>
<svg xmlns:xlink="http://www.w3.org/1999/xlink" height="38.3px" width="36.05px" xmlns="http://www.w3.org/2000/svg">
  <g transform="matrix(1.0, 0.0, 0.0, 1.0, 23.8, 14.85)">
    <use height="16.3" transform="matrix(1.0, 0.0, 0.0, 1.0, -14.75, -2.4)" width="24.3" xlink:href="#shape0"/>
  </g>
  <defs>
    <g id="shape0" transform="matrix(1.0, 0.0, 0.0, 1.0, 14.75, 2.4)">
      <path d="M5.75 10.15 L6.65 8.5 Q7.15 8.2 7.95 5.5 L8.95 6.3 Q9.25 6.7 9.15 7.55 8.95 8.55 8.3 9.0 L5.75 10.15" fill="#c99f55" fill-rule="evenodd" stroke="none"/>
      <path d="M2.2 -1.45 Q3.65 -1.3 5.4 0.65 L5.5 0.6 6.9 2.1 Q8.05 4.05 8.7 6.2 9.2 7.85 7.8 8.8 L6.2 9.7 Q4.9 10.7 2.85 11.55 -2.7 13.7 -7.0 13.45 L-9.25 13.25 -10.1 13.2 -11.1 12.85 Q-12.1 12.55 -12.6 12.1 L-13.25 11.45 -13.55 11.15 Q-14.45 10.2 -13.85 9.0 -12.65 6.7 -10.35 5.35 L-10.3 5.35 Q-7.4 2.15 -4.55 0.45 L-4.2 0.15 -2.1 -1.1 0.05 -1.8 Q1.3 -2.1 2.2 -1.45" fill="#ff4f98" fill-rule="evenodd" stroke="none"/>
      <path d="M-1.3 10.35 L-3.55 11.25 -7.3 11.5 Q-8.1 11.35 -6.4 8.2 L-2.2 6.0 -4.65 5.8 Q-6.3 5.95 -7.8 7.6 -8.2 8.0 -8.6 9.5 -8.9 10.75 -9.25 10.75 L-11.65 10.3 -12.7 9.55 -12.4 7.8 -7.6 2.7 Q-3.05 -2.0 0.9 -1.8 5.95 -1.4 7.8 4.2 8.55 6.05 8.35 6.4 7.35 8.4 3.9 9.1 L-1.3 10.35" fill="#e8cbb1" fill-rule="evenodd" stroke="none"/>
      <path d="M-1.85 5.05 Q1.45 6.55 1.45 10.1 L-0.6 10.75 Q-0.7 8.7 -1.45 7.8 -2.15 6.8 -4.3 6.15 -8.15 5.05 -9.85 5.5 L-11.35 6.3 Q-9.5 3.8 -8.3 3.6 -5.8 3.25 -1.85 5.05" fill="#ff4f98" fill-rule="evenodd" stroke="none"/>
      <path d="M8.2 5.25 Q8.4 7.0 4.95 8.25 1.5 9.55 0.6 9.4" fill="none" stroke="#dba778" stroke-linecap="round" stroke-linejoin="round" stroke-width="1.0"/>
      <path d="M-8.9 10.45 L-11.35 9.75 -12.4 9.05 -12.7 7.6" fill="none" stroke="#dba778" stroke-linecap="round" stroke-linejoin="round" stroke-width="1.0"/>
      <path d="M-13.55 8.3 L-14.05 9.0 Q-14.45 9.8 -14.05 10.75 -12.7 13.7 -4.45 13.35 -0.45 13.1 6.75 9.75 9.45 8.6 8.95 6.3" fill="none" stroke="#a31471" stroke-linecap="round" stroke-linejoin="round" stroke-width="1.0"/>
      <path d="M8.95 6.5 Q8.95 5.3 8.25 4.1 L5.75 0.6 Q4.1 -1.0 1.7 -1.65 -0.85 -2.45 -3.6 -0.55 L-8.3 3.6 Q-9.7 5.1 -12.8 7.65 L-13.55 8.35" fill="none" stroke="#000000" stroke-linecap="round" stroke-linejoin="round" stroke-width="1.0"/>
      <path d="M-0.7 9.75 Q-2.1 11.5 -4.8 11.5 -7.5 11.5 -7.4 10.9" fill="none" stroke="#dba778" stroke-linecap="round" stroke-linejoin="round" stroke-width="1.0"/>
      <path d="M-1.0 1.75 Q1.8 2.45 -0.6 4.45 1.5 4.0 1.35 5.7 1.2 7.3 -2.0 6.9 -1.0 8.85 -3.75 8.75 -5.75 8.6 -5.7 7.85 -6.45 8.6 -8.0 7.2 -10.1 5.2 -6.6 4.55 -8.65 3.05 -6.3 2.15 -4.0 1.25 -3.55 3.3 -3.75 1.1 -1.0 1.75" fill="#de4e00" fill-rule="evenodd" stroke="none"/>
      <path d="M-3.05 6.1 Q-4.25 6.95 -5.35 5.8 -6.4 4.65 -4.6 3.9 L-2.0 4.0 Q-1.25 4.85 -3.05 6.1" fill="#fff200" fill-rule="evenodd" stroke="none"/>
    </g>
  </defs>
</svg>
